X:63
T:Riquegnie: Bon soir, petit bonhomme
M:6/8
L:1/8
K:C
e|e2d c2c|dcd e2f|e2d c2d|1c2B A2:|2c2B A3||\
AAA c3|dcd e2e|e2f e2d|c2B A3:|
